svg/u1f62d.svg

<svg viewBox="0 0 128 128" xmlns="http://www.w3.org/2000/svg">
  <radialGradient id="face_1_" cx="63.6" cy="-2088.8999" gradientTransform="matrix(1 0 0 -1 0 -2026)" gradientUnits="userSpaceOnUse" r="56.9597">
    <stop offset="0.5" stop-color="#FDE030"/>
    <stop offset="0.9188" stop-color="#F7C02B"/>
    <stop offset="1" stop-color="#F4A223"/>
  </radialGradient>
  <path id="face_126_" d="M63.6,118.8c-27.9,0-58-17.5-58-55.9S35.7,7,63.6,7c15.5,0,29.8,5.1,40.4,14.4 c11.5,10.2,17.6,24.6,17.6,41.5s-6.1,31.2-17.6,41.4C93.4,113.6,79,118.8,63.6,118.8z" fill="url(#face_1_)"/>
  <path d="M111.49,29.67c5.33,8.6,8.11,18.84,8.11,30.23c0,16.9-6.1,31.2-17.6,41.4 c-10.6,9.3-25,14.5-40.4,14.5c-18.06,0-37.04-7.35-48.18-22.94c10.76,17.66,30.99,25.94,50.18,25.94c15.4,0,29.8-5.2,40.4-14.5 c11.5-10.2,17.6-24.5,17.6-41.4C121.6,50.16,118.13,38.84,111.49,29.67z" fill="#EB8F00"/>
  <g id="prop_24_">
    <path d="M38.53,48C38.58,48,38.55,48,38.53,48L38.53,48z" fill="#5F7AFF"/>
    <path d="M95.86,48C95.9,48,95.88,48,95.86,48L95.86,48z" fill="#5F7AFF"/>
  </g>
  <radialGradient id="face_2_" cx="63.6" cy="-2088.8999" gradientTransform="matrix(1 0 0 -1 0 -2026)" gradientUnits="userSpaceOnUse" r="56.9597">
    <stop offset="0.5" stop-color="#FDE030"/>
    <stop offset="0.9188" stop-color="#F7C02B"/>
    <stop offset="1" stop-color="#F4A223"/>
  </radialGradient>
  <path id="face_125_" d="M63.6,118.8c-27.9,0-58-17.5-58-55.9S35.7,7,63.6,7c15.5,0,29.8,5.1,40.4,14.4 c11.5,10.2,17.6,24.6,17.6,41.5s-6.1,31.2-17.6,41.4C93.4,113.6,79,118.8,63.6,118.8z" fill="url(#face_2_)"/>
  <g id="mouth_85_">
    <path d="M89.74,79.1c-7.32-2.35-16.21-3.6-25.74-3.6c-9.68,0-18.63,1.37-26.07,3.75 c-2.82,4.67-4.53,10.08-4.53,15.85c0,4.9,4.9,7.8,9.2,5.8c5.4-2.5,13.3-5,21.4-5s16.1,2.5,21.4,5c4.3,2,9.2-0.9,9.2-5.8 C94.6,89.27,92.73,83.8,89.74,79.1z" fill="#422B0D"/>
    <path d="M89.74,79.1C83.7,69.6,73.09,67.2,64,67.2c-9.88,0-20.3,2.47-26.07,12.05 C45.37,76.87,54.32,75.5,64,75.5C73.52,75.5,82.42,76.75,89.74,79.1z" fill="#FFFFFF"/>
  </g>
  <path d="M63.94,65.7c3.5,0.09,7.03,0.41,10.46,1.3c3.44,0.84,6.78,2.28,9.71,4.34 c2.9,2.11,5.34,4.85,7.01,7.97c1.7,3.07,2.94,6.4,3.56,9.85c0.32,1.72,0.49,3.47,0.49,5.22c0.03,0.84-0.05,1.83-0.3,2.72 c-0.26,0.9-0.72,1.73-1.31,2.45c-1.18,1.45-2.98,2.31-4.81,2.44c-0.91,0.05-1.83-0.07-2.69-0.35c-0.87-0.32-1.6-0.71-2.38-1.05 c-6.2-2.74-12.91-4.52-19.74-4.68c6.84-0.09,13.66,1.44,20.04,3.99c0.8,0.31,1.6,0.7,2.34,0.94c0.77,0.22,1.58,0.29,2.36,0.22 c1.57-0.17,3.07-0.97,4.01-2.21c0.47-0.62,0.83-1.32,1.01-2.07c0.18-0.77,0.22-1.5,0.17-2.36c-0.07-1.67-0.29-3.33-0.65-4.95 c-0.71-3.25-2-6.37-3.71-9.21c-1.68-2.85-3.98-5.23-6.67-7.05c-2.73-1.77-5.81-2.98-9.03-3.64c-3.21-0.7-6.54-0.89-9.87-0.85V65.7z " fill="#EB8F00"/>
  <path d="M64.19,68.7c-3.32-0.04-6.66,0.15-9.87,0.85c-3.22,0.66-6.3,1.87-9.03,3.64 c-2.69,1.82-4.99,4.2-6.67,7.05c-1.72,2.84-3,5.95-3.71,9.21c-0.36,1.63-0.59,3.28-0.65,4.95c-0.06,0.86-0.01,1.59,0.17,2.36 c0.19,0.75,0.55,1.45,1.01,2.07c0.94,1.24,2.44,2.04,4.01,2.21c0.79,0.07,1.59,0,2.36-0.22c0.74-0.24,1.54-0.62,2.34-0.94 c6.37-2.55,13.2-4.08,20.04-3.99c-6.84,0.16-13.55,1.94-19.74,4.68c-0.78,0.34-1.51,0.73-2.38,1.05c-0.86,0.28-1.78,0.4-2.69,0.35 c-1.82-0.12-3.62-0.99-4.81-2.44c-0.59-0.72-1.05-1.55-1.31-2.45c-0.25-0.88-0.33-1.87-0.3-2.72c0.01-1.75,0.18-3.49,0.49-5.22 c0.63-3.45,1.86-6.78,3.56-9.85c1.68-3.11,4.12-5.86,7.01-7.97c2.93-2.06,6.27-3.51,9.71-4.34c3.44-0.88,6.97-1.21,10.46-1.3V68.7z " fill="#EB8F00"/>
  <path d="M111.49,29.67c5.33,8.6,8.11,18.84,8.11,30.23c0,16.9-6.1,31.2-17.6,41.4 c-10.6,9.3-25,14.5-40.4,14.5c-18.06,0-37.04-7.35-48.18-22.94c10.76,17.66,30.99,25.94,50.18,25.94c15.4,0,29.8-5.2,40.4-14.5 c11.5-10.2,17.6-24.5,17.6-41.4C121.6,50.16,118.13,38.84,111.49,29.67z" fill="#EB8F00"/>
  <g id="prop_23_">
    <path d="M36.53,48C36.58,48,36.55,48,36.53,48L36.53,48z" fill="#5F7AFF"/>
    <path d="M93.86,48C93.9,48,93.88,48,93.86,48L93.86,48z" fill="#5F7AFF"/>
  </g>
  <path id="left-eyebrow_6_" d="M22.19,45.91c-0.52,0.09-1.06,0.01-1.52-0.21c-0.91-0.44-1.6-1.51-1.08-2.91 c1.91-4.94,5.86-9.08,10.84-11.38c1.85-0.86,3.79-1.43,5.78-1.7c1.49-0.17,2.36,0.74,2.57,1.71c0.23,1.08-0.26,2.4-1.66,2.86 L37,34.32c-5.39,1.86-10.2,5.67-13.18,10.44C23.41,45.44,22.81,45.8,22.19,45.91z" fill="#422B0D"/>
  <path id="left-eyebrow_5_" d="M103.53,44.76c-2.98-4.77-7.79-8.58-13.18-10.44l-0.12-0.04 c-1.4-0.45-1.9-1.78-1.66-2.86c0.21-0.98,1.09-1.88,2.57-1.71c1.98,0.26,3.93,0.84,5.78,1.7c4.98,2.3,8.93,6.44,10.84,11.38 c0.52,1.4-0.17,2.47-1.08,2.91c-0.45,0.22-0.99,0.3-1.52,0.21C104.54,45.8,103.94,45.44,103.53,44.76z" fill="#422B0D"/>
  <path d="M111.74,111c0-3.07-5.55-5.62-12.52-5.78l-2.15-52.55c-0.21-0.16-0.42-0.35-0.59-0.56 c0,0-0.06-0.08-0.18-0.22c-0.06-0.07-0.13-0.16-0.21-0.27c-0.09-0.11-0.18-0.23-0.26-0.29c-0.17-0.17-0.38-0.38-0.62-0.62 c-0.25-0.25-0.55-0.52-0.86-0.79c-0.64-0.54-1.4-1.04-2.2-1.39c-0.8-0.33-1.61-0.53-2.44-0.52l-0.13,0l-0.29,0.01 c-0.26,0-0.21,0.02-0.29,0.03c-0.07-0.01-0.35,0.06-0.54,0.09c-0.4,0.1-0.82,0.22-1.22,0.39c-0.8,0.35-5.09,0.54-5.37,0.71 l-0.46,61.25c-4.53,1.37-9.49,3.67-9.49,6.24c0,4.19,7.83,7.6,17.49,7.6c9.66,0,17.49-3.39,17.49-7.58c0-0.42-0.1-0.82-0.25-1.22 C109.75,114.47,111.74,112.84,111.74,111z" fill="#29B6F6"/>
  <path d="M86.38,106.87c0.09,3.25-1.87,6.19-4.89,7.4c-3.67,1.47-7.17,3.54-1.93,4.78c0,0,3.95,1.94,5.96,0.93 c0.9-0.45,0.59-1.19-0.03-1.86c-0.68-0.73-0.34-1.91,0.63-2.13l0.86-0.19c2.18-0.48,3.71-2.45,3.65-4.68l-1.61-65.63l-3.29-0.27 L86.38,106.87z" fill="#81D4FA"/>
  <path d="M46.88,110.49l-0.45-61.13c-0.49-0.22-1.33,2.67-1.45,2.52c-0.06-0.07-0.13-0.16-0.21-0.27 c-0.09-0.11-0.18-0.23-0.26-0.29c-0.17-0.17-0.38-0.38-0.62-0.62c-0.25-0.25-0.55-0.52-0.86-0.79c-0.64-0.54-1.4-1.04-2.2-1.39 c-0.8-0.33-1.61-0.53-2.44-0.52l-0.13,0l-0.29,0.01c-0.26,0-0.21,0.02-0.29,0.03c-0.07-0.01-0.35,0.06-0.54,0.09 c-0.4,0.1-0.82,0.22-1.22,0.39c-0.8,0.35-1.56,0.85-2.2,1.39c-0.63,0.54-1.16,1.07-1.52,1.47c-0.36,0.41-0.57,0.64-0.57,0.64 l-0.3,0.34c-0.03,0.03-0.06,0.05-0.09,0.08l-2.16,52.77c-6.98,0.16-12.52,2.69-12.52,5.76c0,1.84,1.99,3.49,5.08,4.54 c-0.15,0.4-0.25,0.81-0.25,1.23c0,4.19,7.83,7.59,17.49,7.59s17.49-3.42,17.49-7.61C56.37,114.15,51.4,111.86,46.88,110.49z" fill="#29B6F6"/>
  <path d="M35.25,49.14L33.5,104.4c-0.05,1.61-1.4,2.87-3,2.8c-2.08-0.09-4.93,0.15-7.27,1.6 c-1.26,0.78-1.78,2.77-0.63,3.88c1.26,1.21,4.56,0.16,6.21-0.01c0.72-0.07,1.67,0,1.86,0.7c0.11,0.4-0.13,0.83-0.46,1.07 c-0.33,0.25-0.74,0.35-1.14,0.47c-0.66,0.19-1.32,0.42-1.84,0.87c-0.51,0.45-0.84,1.17-0.66,1.83c0.24,0.85,1.18,1.26,2.01,1.55 c1.46,0.53,2.95,1.06,4.5,1.13c0.09-1.1-1.62-1.86-1.28-2.91c0.12-0.37,0.47-0.61,0.82-0.78c0.94-0.44,2.01-0.53,3.02-0.77 c1.66-0.39,4.66-1.23,3.88-3.51c-0.26-0.75-0.79-1.36-1.24-2.02c-1.69-2.5-2.02-4.7-1.72-7.7c0.24-2.34,0.84-39.37,1.24-54.6 c0.1-3.65-1.09-0.29-2.28-0.2C35.42,47.93,35.35,49.02,35.25,49.14z" fill="#81D4FA"/>
  <path d="M48.6,54.43l-0.2-0.2c-0.1-0.1-0.4-0.4-0.5-0.5c-0.2-0.2-0.4-0.3-0.7-0.6c-0.3-0.2-0.6-0.5-1-0.7 s-0.8-0.5-1.2-0.7s-0.9-0.4-1.4-0.6s-1-0.3-1.5-0.4s-1-0.1-1.6-0.1h0.1l0,0l0,0l0,0h-0.1h-0.2H40c-0.3,0-0.3,0-0.4,0 c-0.2,0-0.5,0.1-0.7,0.1c-0.5,0.1-1,0.2-1.5,0.4c-0.5,0.2-1,0.3-1.4,0.6c-0.4,0.2-0.8,0.4-1.2,0.7c-0.7,0.5-1.3,1-1.7,1.3 c-0.4,0.4-0.6,0.6-0.6,0.6l-0.2,0.2c-1.2,1.2-3.2,1.2-4.6,0.2c-1-0.8-1.3-2.2-0.8-3.2l0.1-0.3c0.1-0.2,0.2-0.5,0.4-0.8 c0.4-0.7,1.1-1.7,2.2-2.8c0.5-0.5,1.2-1.1,1.9-1.6c0.7-0.5,1.6-1,2.5-1.4s2-0.8,3-1c0.5-0.1,1.1-0.2,1.7-0.3c0.3,0,0.7-0.1,0.8-0.1 h0.8c1.1,0,2.2,0.1,3.3,0.3c1.1,0.2,2.1,0.6,3,1s1.8,0.9,2.5,1.4c0.8,0.5,1.4,1,1.9,1.6c0.5,0.5,1,1,1.3,1.5 c0.2,0.2,0.3,0.5,0.5,0.7c0.1,0.2,0.3,0.4,0.4,0.6c0.3,0.4,0.3,0.6,0.4,0.8c0.1,0.2,0.1,0.2,0.1,0.2c0.7,1.5-0.1,3.2-1.8,3.8 C51,55.63,49.5,55.33,48.6,54.43L48.6,54.43z" fill="#422B0D"/>
  <path d="M95.51,54.07c0,0-0.07-0.07-0.2-0.2c-0.11-0.11-0.36-0.39-0.51-0.5c-0.19-0.16-0.42-0.35-0.69-0.57 c-0.29-0.22-0.62-0.46-0.98-0.71c-0.37-0.23-0.77-0.47-1.2-0.68c-0.42-0.23-0.9-0.39-1.38-0.57c-0.48-0.17-0.99-0.26-1.5-0.37 c-0.51-0.08-1.04-0.12-1.57-0.12c0.3,0,0.08,0,0.14,0l-0.01,0l-0.02,0l-0.04,0l-0.08,0l-0.16,0l-0.31,0.01 c-0.26,0-0.3,0.02-0.4,0.03c-0.16,0-0.45,0.05-0.7,0.09c-0.51,0.11-1.02,0.2-1.5,0.37c-0.47,0.18-0.95,0.34-1.37,0.57 c-0.43,0.22-0.83,0.45-1.2,0.68c-0.72,0.48-1.31,0.96-1.7,1.32c-0.4,0.36-0.63,0.58-0.63,0.58l-0.25,0.25 c-1.21,1.17-3.25,1.24-4.57,0.17c-1.04-0.85-1.3-2.16-0.78-3.25c0,0,0.05-0.1,0.15-0.3c0.1-0.19,0.22-0.49,0.44-0.84 c0.41-0.71,1.09-1.71,2.17-2.76c0.54-0.52,1.17-1.07,1.92-1.57c0.73-0.52,1.58-0.99,2.52-1.4c0.94-0.4,1.96-0.75,3.04-0.97 c0.55-0.1,1.06-0.2,1.73-0.26c0.31-0.03,0.68-0.06,0.84-0.07l0.77-0.03c1.13,0.02,2.25,0.14,3.34,0.35c1.08,0.22,2.1,0.57,3.04,0.97 c0.93,0.41,1.79,0.88,2.52,1.4c0.75,0.5,1.37,1.04,1.91,1.57c0.54,0.52,0.97,1.04,1.33,1.51c0.17,0.24,0.33,0.46,0.48,0.67 c0.14,0.23,0.28,0.44,0.39,0.63c0.27,0.42,0.29,0.58,0.39,0.77c0.07,0.16,0.11,0.25,0.11,0.25c0.67,1.49-0.14,3.18-1.81,3.78 C97.87,55.34,96.4,54.98,95.51,54.07z" fill="#422B0D"/>
</svg>

<svg viewBox="0 0 128 128" xmlns="http://www.w3.org/2000/svg">
  <defs>
    <radialGradient id="face_1_" cx="63.6" cy="-62.8999" gradientTransform="matrix(1 0 0 -1 0 0)" gradientUnits="userSpaceOnUse" r="56.9597">
      <stop offset="0.5" stop-color="#FDE030"/>
      <stop offset="0.9188" stop-color="#F7C02B"/>
      <stop offset="1" stop-color="#F4A223"/>
    </radialGradient>
    <radialGradient id="face_2_" cx="63.6" cy="-62.8999" gradientTransform="matrix(1 0 0 -1 0 0)" gradientUnits="userSpaceOnUse" r="56.9597">
      <stop offset="0.5" stop-color="#FDE030"/>
      <stop offset="0.9188" stop-color="#F7C02B"/>
      <stop offset="1" stop-color="#F4A223"/>
    </radialGradient>
  </defs>
  <path id="face_126_" d="M63.6,118.8 C35.7,118.8 5.6,101.3 5.6,62.9 C5.6,24.5 35.7,7 63.6,7 C79.1,7 93.4,12.1 104,21.4 C115.5,31.6 121.6,46 121.6,62.9 C121.6,79.8 115.5,94.1 104,104.3 C93.4,113.6 79,118.8 63.6,118.8 Z" fill="url(#face_1_)"/>
  <path d="M111.49,29.67 C116.82,38.27 119.6,48.51 119.6,59.9 C119.6,76.8 113.5,91.1 102,101.3 C91.4,110.6 77,115.8 61.6,115.8 C43.54,115.8 24.56,108.45 13.42,92.86 C24.18,110.52 44.41,118.8 63.6,118.8 C79,118.8 93.4,113.6 104,104.3 C115.5,94.1 121.6,79.8 121.6,62.9 C121.6,50.16 118.13,38.84 111.49,29.67 Z" fill="#EB8F00"/>
  <path id="face_125_" d="M63.6,118.8 C35.7,118.8 5.6,101.3 5.6,62.9 C5.6,24.5 35.7,7 63.6,7 C79.1,7 93.4,12.1 104,21.4 C115.5,31.6 121.6,46 121.6,62.9 C121.6,79.8 115.5,94.1 104,104.3 C93.4,113.6 79,118.8 63.6,118.8 Z" fill="url(#face_2_)"/>
  <path d="M89.74,79.1 C82.42,76.75 73.53,75.5 64,75.5 C54.32,75.5 45.37,76.87 37.93,79.25 C35.11,83.92 33.4,89.33 33.4,95.1 C33.4,100 38.3,102.9 42.6,100.9 C48,98.4 55.9,95.9 64,95.9 C72.1,95.9 80.1,98.4 85.4,100.9 C89.7,102.9 94.6,100 94.6,95.1 C94.6,89.27 92.73,83.8 89.74,79.1 Z" fill="#422B0D"/>
  <path d="M89.74,79.1 C83.7,69.6 73.09,67.2 64,67.2 C54.12,67.2 43.7,69.67 37.93,79.25 C45.37,76.87 54.32,75.5 64,75.5 C73.52,75.5 82.42,76.75 89.74,79.1 Z" fill="#FFFFFF"/>
  <path d="M63.94,65.7 C67.44,65.79 70.97,66.11 74.4,67 C77.84,67.84 81.18,69.28 84.11,71.34 C87.01,73.45 89.45,76.19 91.12,79.31 C92.82,82.38 94.06,85.71 94.68,89.16 C95,90.88 95.17,92.63 95.17,94.38 C95.2,95.22 95.12,96.21 94.87,97.1 C94.61,98 94.15,98.83 93.56,99.55 C92.38,101 90.58,101.86 88.75,101.99 C87.84,102.04 86.92,101.92 86.06,101.64 C85.19,101.32 84.46,100.93 83.68,100.59 C77.48,97.85 70.77,96.07 63.94,95.91 C70.78,95.82 77.6,97.35 83.98,99.9 C84.78,100.21 85.58,100.6 86.32,100.84 C87.09,101.06 87.9,101.13 88.68,101.06 C90.25,100.89 91.75,100.09 92.69,98.85 C93.16,98.23 93.52,97.53 93.7,96.78 C93.88,96.01 93.92,95.28 93.87,94.42 C93.8,92.75 93.58,91.09 93.22,89.47 C92.51,86.22 91.22,83.1 89.51,80.26 C87.83,77.41 85.53,75.03 82.84,73.21 C80.11,71.44 77.03,70.23 73.81,69.57 C70.6,68.87 67.27,68.68 63.94,68.72 L63.94,65.7 Z" fill="#EB8F00"/>
  <path d="M64.19,68.7 C60.87,68.66 57.53,68.85 54.32,69.55 C51.1,70.21 48.02,71.42 45.29,73.19 C42.6,75.01 40.3,77.39 38.62,80.24 C36.9,83.08 35.62,86.19 34.91,89.45 C34.55,91.08 34.32,92.73 34.26,94.4 C34.2,95.26 34.25,95.99 34.43,96.76 C34.62,97.51 34.98,98.21 35.44,98.83 C36.38,100.07 37.88,100.87 39.45,101.04 C40.24,101.11 41.04,101.04 41.81,100.82 C42.55,100.58 43.35,100.2 44.15,99.88 C50.52,97.33 57.35,95.8 64.19,95.89 C57.35,96.05 50.64,97.83 44.45,100.57 C43.67,100.91 42.94,101.3 42.07,101.62 C41.21,101.9 40.29,102.02 39.38,101.97 C37.56,101.85 35.76,100.98 34.57,99.53 C33.98,98.81 33.52,97.98 33.26,97.08 C33.01,96.2 32.93,95.21 32.96,94.36 C32.97,92.61 33.14,90.87 33.45,89.14 C34.08,85.69 35.31,82.36 37.01,79.29 C38.69,76.18 41.13,73.43 44.02,71.32 C46.95,69.26 50.29,67.81 53.73,66.98 C57.17,66.1 60.7,65.77 64.19,65.68 L64.19,68.7 Z" fill="#EB8F00"/>
  <path d="M111.49,29.67 C116.82,38.27 119.6,48.51 119.6,59.9 C119.6,76.8 113.5,91.1 102,101.3 C91.4,110.6 77,115.8 61.6,115.8 C43.54,115.8 24.56,108.45 13.42,92.86 C24.18,110.52 44.41,118.8 63.6,118.8 C79,118.8 93.4,113.6 104,104.3 C115.5,94.1 121.6,79.8 121.6,62.9 C121.6,50.16 118.13,38.84 111.49,29.67 Z" fill="#EB8F00"/>
  <path id="left-eyebrow_6_" d="M22.19,45.91 C21.67,46 21.13,45.92 20.67,45.7 C19.76,45.26 19.07,44.19 19.59,42.79 C21.5,37.85 25.45,33.71 30.43,31.41 C32.28,30.55 34.22,29.98 36.21,29.71 C37.7,29.54 38.57,30.45 38.78,31.42 C39.01,32.5 38.52,33.82 37.12,34.28 L37,34.32 C31.61,36.18 26.8,39.99 23.82,44.76 C23.41,45.44 22.81,45.8 22.19,45.91 Z" fill="#422B0D"/>
  <path id="left-eyebrow_5_" d="M103.53,44.76 C100.55,39.99 95.74,36.18 90.35,34.32 L90.23,34.28 C88.83,33.83 88.33,32.5 88.57,31.42 C88.78,30.44 89.66,29.54 91.14,29.71 C93.12,29.97 95.07,30.55 96.92,31.41 C101.9,33.71 105.85,37.85 107.76,42.79 C108.28,44.19 107.59,45.26 106.68,45.7 C106.23,45.92 105.69,46 105.16,45.91 C104.54,45.8 103.94,45.44 103.53,44.76 Z" fill="#422B0D"/>
  <path d="M111.74,111 C111.74,107.93 106.19,105.38 99.22,105.22 L97.07,52.67 C96.86,52.51 96.65,52.32 96.48,52.11 C96.48,52.11 96.42,52.03 96.3,51.89 C96.24,51.82 96.17,51.73 96.09,51.62 C96,51.51 95.91,51.39 95.83,51.33 C95.66,51.16 95.45,50.95 95.21,50.71 C94.96,50.46 94.66,50.19 94.35,49.92 C93.71,49.38 92.95,48.88 92.15,48.53 C91.35,48.2 90.54,48 89.71,48.01 L89.58,48.01 L89.29,48.02 C89.03,48.02 89.08,48.04 89,48.05 C88.93,48.04 88.65,48.11 88.46,48.14 C88.06,48.24 87.64,48.36 87.24,48.53 C86.44,48.88 82.15,49.07 81.87,49.24 L81.41,110.49 C76.88,111.86 71.92,114.16 71.92,116.73 C71.92,120.92 79.75,124.33 89.41,124.33 C99.07,124.33 106.9,120.94 106.9,116.75 C106.9,116.33 106.8,115.93 106.65,115.53 C109.75,114.47 111.74,112.84 111.74,111 Z" fill="#29B6F6"/>
  <path d="M86.38,106.87 C86.47,110.12 84.51,113.06 81.49,114.27 C77.82,115.74 74.32,117.81 79.56,119.05 C79.56,119.05 83.51,120.99 85.52,119.98 C86.42,119.53 86.11,118.79 85.49,118.12 C84.81,117.39 85.15,116.21 86.12,115.99 L86.98,115.8 C89.16,115.32 90.69,113.35 90.63,111.12 L89.02,45.49 L85.73,45.22 L86.38,106.87 Z" fill="#81D4FA"/>
  <path d="M46.88,110.49 L46.43,49.36 C45.94,49.14 45.1,52.03 44.98,51.88 C44.92,51.81 44.85,51.72 44.77,51.61 C44.68,51.5 44.59,51.38 44.51,51.32 C44.34,51.15 44.13,50.94 43.89,50.7 C43.64,50.45 43.34,50.18 43.03,49.91 C42.39,49.37 41.63,48.87 40.83,48.52 C40.03,48.19 39.22,47.99 38.39,48 L38.26,48 L37.97,48.01 C37.71,48.01 37.76,48.03 37.68,48.04 C37.61,48.03 37.33,48.1 37.14,48.13 C36.74,48.23 36.32,48.35 35.92,48.52 C35.12,48.87 34.36,49.37 33.72,49.91 C33.09,50.45 32.56,50.98 32.2,51.38 C31.84,51.79 31.63,52.02 31.63,52.02 L31.33,52.36 C31.3,52.39 31.27,52.41 31.24,52.44 L29.08,105.21 C22.1,105.37 16.56,107.9 16.56,110.97 C16.56,112.81 18.55,114.46 21.64,115.51 C21.49,115.91 21.39,116.32 21.39,116.74 C21.39,120.93 29.22,124.33 38.88,124.33 C48.54,124.33 56.37,120.91 56.37,116.72 C56.37,114.15 51.4,111.86 46.88,110.49 Z" fill="#29B6F6"/>
  <path d="M35.25,49.14 L33.5,104.4 C33.45,106.01 32.1,107.27 30.5,107.2 C28.42,107.11 25.57,107.35 23.23,108.8 C21.97,109.58 21.45,111.57 22.6,112.68 C23.86,113.89 27.16,112.84 28.81,112.67 C29.53,112.6 30.48,112.67 30.67,113.37 C30.78,113.77 30.54,114.2 30.21,114.44 C29.88,114.69 29.47,114.79 29.07,114.91 C28.41,115.1 27.75,115.33 27.23,115.78 C26.72,116.23 26.39,116.95 26.57,117.61 C26.81,118.46 27.75,118.87 28.58,119.16 C30.04,119.69 31.53,120.22 33.08,120.29 C33.17,119.19 31.46,118.43 31.8,117.38 C31.92,117.01 32.27,116.77 32.62,116.6 C33.56,116.16 34.63,116.07 35.64,115.83 C37.3,115.44 40.3,114.6 39.52,112.32 C39.26,111.57 38.73,110.96 38.28,110.3 C36.59,107.8 36.26,105.6 36.56,102.6 C36.8,100.26 37.4,63.23 37.8,48 C37.9,44.35 36.71,47.71 35.52,47.8 C35.42,47.93 35.35,49.02 35.25,49.14 Z" fill="#81D4FA"/>
  <path d="M48.6,54.43 L48.4,54.23 C48.3,54.13 48,53.83 47.9,53.73 C47.7,53.53 47.5,53.43 47.2,53.13 C46.9,52.93 46.6,52.63 46.2,52.43 C45.8,52.23 45.4,51.93 45,51.73 C44.6,51.53 44.1,51.33 43.6,51.13 C43.1,50.93 42.6,50.83 42.1,50.73 C41.6,50.63 41.1,50.63 40.5,50.63 L40.6,50.63 L40.6,50.63 L40.6,50.63 L40.6,50.63 L40.5,50.63 L40.3,50.63 L40,50.63 C39.7,50.63 39.7,50.63 39.6,50.63 C39.4,50.63 39.1,50.73 38.9,50.73 C38.4,50.83 37.9,50.93 37.4,51.13 C36.9,51.33 36.4,51.43 36,51.73 C35.6,51.93 35.2,52.13 34.8,52.43 C34.1,52.93 33.5,53.43 33.1,53.73 C32.7,54.13 32.5,54.33 32.5,54.33 L32.3,54.53 C31.1,55.73 29.1,55.73 27.7,54.73 C26.7,53.93 26.4,52.53 26.9,51.53 L27,51.23 C27.1,51.03 27.2,50.73 27.4,50.43 C27.8,49.73 28.5,48.73 29.6,47.63 C30.1,47.13 30.8,46.53 31.5,46.03 C32.2,45.53 33.1,45.03 34,44.63 C34.9,44.23 36,43.83 37,43.63 C37.5,43.53 38.1,43.43 38.7,43.33 C39,43.33 39.4,43.23 39.5,43.23 L40.3,43.23 C41.4,43.23 42.5,43.33 43.6,43.53 C44.7,43.73 45.7,44.13 46.6,44.53 C47.5,44.93 48.4,45.43 49.1,45.93 C49.9,46.43 50.5,46.93 51,47.53 C51.5,48.03 52,48.53 52.3,49.03 C52.5,49.23 52.6,49.53 52.8,49.73 C52.9,49.93 53.1,50.13 53.2,50.33 C53.5,50.73 53.5,50.93 53.6,51.13 C53.7,51.33 53.7,51.33 53.7,51.33 C54.4,52.83 53.6,54.53 51.9,55.13 C51,55.63 49.5,55.33 48.6,54.43 L48.6,54.43 Z" fill="#422B0D"/>
  <path d="M95.51,54.07 C95.51,54.07 95.44,54 95.31,53.87 C95.2,53.76 94.95,53.48 94.8,53.37 C94.61,53.21 94.38,53.02 94.11,52.8 C93.82,52.58 93.49,52.34 93.13,52.09 C92.76,51.86 92.36,51.62 91.93,51.41 C91.51,51.18 91.03,51.02 90.55,50.84 C90.07,50.67 89.56,50.58 89.05,50.47 C88.54,50.39 88.01,50.35 87.48,50.35 C87.78,50.35 87.56,50.35 87.62,50.35 L87.61,50.35 L87.59,50.35 L87.55,50.35 L87.47,50.35 L87.31,50.35 L87,50.36 C86.74,50.36 86.7,50.38 86.6,50.39 C86.44,50.39 86.15,50.44 85.9,50.48 C85.39,50.59 84.88,50.68 84.4,50.85 C83.93,51.03 83.45,51.19 83.03,51.42 C82.6,51.64 82.2,51.87 81.83,52.1 C81.11,52.58 80.52,53.06 80.13,53.42 C79.73,53.78 79.5,54 79.5,54 L79.25,54.25 C78.04,55.42 76,55.49 74.68,54.42 C73.64,53.57 73.38,52.26 73.9,51.17 C73.9,51.17 73.95,51.07 74.05,50.87 C74.15,50.68 74.27,50.38 74.49,50.03 C74.9,49.32 75.58,48.32 76.66,47.27 C77.2,46.75 77.83,46.2 78.58,45.7 C79.31,45.18 80.16,44.71 81.1,44.3 C82.04,43.9 83.06,43.55 84.14,43.33 C84.69,43.23 85.2,43.13 85.87,43.07 C86.18,43.04 86.55,43.01 86.71,43 L87.48,42.97 C88.61,42.99 89.73,43.11 90.82,43.32 C91.9,43.54 92.92,43.89 93.86,44.29 C94.79,44.7 95.65,45.17 96.38,45.69 C97.13,46.19 97.75,46.73 98.29,47.26 C98.83,47.78 99.26,48.3 99.62,48.77 C99.79,49.01 99.95,49.23 100.1,49.44 C100.24,49.67 100.38,49.88 100.49,50.07 C100.76,50.49 100.78,50.65 100.88,50.84 C100.95,51 100.99,51.09 100.99,51.09 C101.66,52.58 100.85,54.27 99.18,54.87 C97.87,55.34 96.4,54.98 95.51,54.07 Z" fill="#422B0D"/>
</svg>
